X:68
T:B068-  Chloris, since thou art fled away
Q:1/4=120
L:1/4
M:3/4
K:Gmixolydian
cde|c3|GA3/2B/2|c3|ccA|A3|GG3/2F/2|E3|\
DE3/2F/2|G3|GA3/2A/2|B3|BAB|c3|AG3/2F/2|F2A|\
A2G|G2A|F2E|G3|de/2d/2c|d2B|cGA|GEG|]
